!!!OTL: 9c. Die verwandelte Blume.
!!!ARE: Europa, Mitteleuropa, Deutschland, Hannover, Bantorf
!!!SCT: E0009B
!!!TXL: @@DE
!!!YEM: Copyright 1995, estate of Helmut Schaffrath.
**kern	**text
*ICvox	*
*M6/8	*
*k[f#]	*
*G:	*
!LO:TX:a:t=Heiter.	!
!LO:TX:a:t=Mel. von Bergleuten in Bantorf (unfern Hannover) 1818 gehört.	!
{8d	Dort
=1	=1
8.g	drunten
16g	.
8g	im
8g	Gar-
8b	-ten
8dd	da
=2	=2
4.a	iſt
4r}	.
{8d	ein
=3	=3
4a	ſchönes
8a	.
8aL	Pa-
8ddJ	.
8cc	-ra-
=4	=4
4.b	-dies,
4r}	.
{8g	das
=5	=5
8gL	war
8bJ	ſo
8b	ſchön
4b	anʒu-
8ee	.
=6	=6
[4.dd	-ſehn,
4dd]}	.
{16ccL	daß
16bJ	.
=7	=7
4a	man
8a	mocht
8a/L	drin-
8ddJ	.
8cc	-nen
=8	=8
[4.b	gehn,
4b]}	.
{16gL	daß
16f#J	.
=9	=9
4e	man
8d	mocht
4g	drinn,
16bL	ja
16eeJ	.
=10	=10
4dd	drin-
8f#	-nen
4g}	gehn.
==	==
!!!AGN: Sage, Maerchen -, Zauber - Lied, Ballade ?
!!!ONB: ESAC (Essen Associative Code) Database: ERK1
!!!AMT: compound duple
!!!AIN: vox
!!!EED: Helmut Schaffrath
!!!EEV: 1.0
!!!GTL: Nachtklaenge der Goettersage (Zaubermaeren)
!!!URL-scan: https://rosdok.uni-rostock.de/mcrviewer/recordIdentifier/rosdok_ppn745146120/iview2/phys_0093.iview2?x=-4.404412318552431&y=63.55421871918952&scale=0.645690413860662&rotation=0&layout=singlePageLayout&logicalDiv=log_0009
!!!ENC: Anna Maria Matuszewska
!!!EEV: 2024/22/11
*-	*-
